X: 1664
T: Annika's Butterfly
R: barndance
M: 4/4
K: Fmajor
|:D3F AFDF|AF D2 G3B|dBGB dB G2|A3^c e3^c|A4 A4|
Adfe dcBA|GFED ^C2 A2|D3F AFDF|AF D2 G3B|dBGB dB G2|
A3^c e2 g2|fefg a2 gf|f2 ed ^c2 A2|1 d6 (3AFE:|2 d6 (3cde||
|:f3g fcAB|cBAB cBAB|c2 A2 F4|G3B d3 g|baga baga|
b2 g2 e2 c2|B3d g3a|ba g2 c3f|agfg ag f2|d2 ba g3f|
efga gfef|g2 e2 c3A|B3d g3a|ba g2 c3f|
agfg ag f2|d2 ba g3f|efga gfef|g2 g2 f4:|

